synths/stBTC.svg

<svg width="42" height="42" viewBox="0 0 42 42" fill="none" xmlns="http://www.w3.org/2000/svg">
<g clip-path="url(#clip0_9192_10706)">
<path d="M21 42C32.598 42 42 32.598 42 21C42 9.40202 32.598 0 21 0C9.40202 0 0 9.40202 0 21C0 32.598 9.40202 42 21 42Z" fill="#6F91E9"/>
<path d="M29.5174 16.0869C29.2485 13.3183 26.8558 12.3928 23.8379 12.1315L23.8334 8.28989L21.4962 8.29366L21.4998 12.034C20.8854 12.0337 20.2583 12.0474 19.6325 12.0608L19.6295 8.2959L17.2921 8.29839L17.2963 12.1387C16.7901 12.1491 16.2923 12.1602 15.8078 12.1598L15.8075 12.1477L12.5825 12.1507L12.5857 14.6477C12.5857 14.6477 14.3129 14.6127 14.2843 14.6442C15.2313 14.6437 15.5394 15.193 15.6301 15.6682L15.6359 20.044C15.7008 20.0439 15.7855 20.0471 15.8832 20.0591L15.6359 20.0602L15.6429 26.1906C15.601 26.4879 15.4265 26.9632 14.7641 26.9655C14.7949 26.9916 13.0651 26.9677 13.0651 26.9677L12.6037 29.7596L15.6473 29.7561C16.2129 29.7565 16.77 29.7657 17.316 29.7683L17.3218 33.6529L19.6577 33.6494L19.6531 29.8079C20.2946 29.819 20.9153 29.8231 21.5214 29.8228L21.5247 33.6485L23.8618 33.6447L23.8579 29.7678C27.7891 29.5378 30.5387 28.5445 30.8761 24.8527C31.1489 21.8806 29.7492 20.5549 27.5171 20.0222C28.8728 19.3307 29.718 18.1136 29.5174 16.0869V16.0869ZM26.255 24.3976C26.2613 27.3011 21.2885 26.9761 19.7036 26.9795L19.6993 21.8321C21.2849 21.8313 26.2528 21.37 26.255 24.3976ZM25.1597 17.1368C25.1626 19.7786 21.0163 19.4739 19.6974 19.4755L19.6918 14.8089C21.0106 14.8072 25.1567 14.3814 25.1597 17.1368Z" fill="white"/>
</g>
<defs>
<clipPath id="clip0_9192_10706">
<rect width="42" height="42" fill="white"/>
</clipPath>
</defs>
</svg>

<svg width="42" height="42" fill="none" viewBox="0 0 42 42" xmlns="http://www.w3.org/2000/svg">
  <g clip-path="url(#a)">
    <path fill="#6F91E9" d="M21 42c11.598 0 21-9.402 21-21S32.598 0 21 0 0 9.402 0 21s9.402 21 21 21"/>
    <path fill="#fff" d="M29.517 16.087c-.268-2.769-2.661-3.694-5.68-3.955l-.004-3.842-2.337.004.004 3.74c-.615 0-1.242.013-1.867.027l-.003-3.765-2.338.002.004 3.84c-.506.011-1.004.022-1.488.022v-.012l-3.226.003.004 2.497s1.727-.035 1.698-.004c.947 0 1.255.549 1.346 1.024l.006 4.376c.065 0 .15.003.247.015l-.247.001.007 6.13c-.042.298-.216.773-.879.775.03.027-1.699.003-1.699.003l-.461 2.792 3.043-.004c.566 0 1.123.01 1.669.012l.006 3.885 2.336-.004-.005-3.841q.961.016 1.868.015l.004 3.825 2.337-.003-.004-3.877c3.931-.23 6.68-1.224 7.018-4.915.273-2.972-1.127-4.298-3.359-4.83 1.356-.692 2.201-1.91 2-3.936m-3.262 8.31c.006 2.904-4.966 2.58-6.551 2.583l-.005-5.148c1.586 0 6.554-.462 6.556 2.566m-1.095-7.26c.003 2.642-4.144 2.337-5.463 2.339l-.005-4.667c1.319-.002 5.465-.428 5.468 2.328"/>
  </g>
  <defs>
    <clipPath id="a">
      <path fill="#fff" d="M0 0h42v42H0z"/>
    </clipPath>
  </defs>
</svg>
